packages/react-icons/assets/HandIcon.svg

<svg width="24" height="24" viewBox="0 0 24 24" fill="none" xmlns="http://www.w3.org/2000/svg">
<path d="M5.58223 14.6051C5.58374 14.6157 5.5856 14.6263 5.58779 14.6369C5.96645 16.4523 6.58679 17.9632 7.57638 19.0243C8.58283 20.1034 9.92999 20.6732 11.6528 20.6732C12.9212 20.6732 14.0029 20.4148 14.919 19.8708C15.8314 19.3291 16.5431 18.5257 17.1096 17.4926C17.9087 16.2101 18.4579 14.4779 18.8934 13.0471C18.9279 12.938 18.9649 12.8226 19.0029 12.704C19.0916 12.4274 19.1858 12.1337 19.2658 11.8635C19.3757 11.4928 19.4807 11.0982 19.4968 10.8222C19.5199 10.4679 19.416 10.1301 19.1859 9.87253C18.9565 9.6158 18.6342 9.47487 18.2855 9.45127C17.8939 9.42319 17.5444 9.52734 17.2445 9.77729C16.9669 10.0086 16.7601 10.3418 16.5806 10.7175L16.5806 10.7175L16.5784 10.7222L15.8969 12.1876L16.2107 4.99191C16.211 4.98465 16.2111 4.97739 16.2111 4.97012C16.2111 4.18282 15.5862 3.5579 14.7989 3.5579C14.0221 3.5579 13.4033 4.17687 13.3946 4.95362L13.2734 6.97643L13.1885 3.90463C13.1845 3.1209 12.5611 2.5 11.7763 2.5C10.9941 2.5 10.372 3.12776 10.372 3.91222H10.3718L10.3722 3.9262L10.4775 7.69202L10.0699 4.46558C10.0517 3.7024 9.43379 3.09596 8.66596 3.09596C7.8815 3.09596 7.25374 3.71805 7.25374 4.50032C7.25374 4.51811 7.25469 4.53589 7.25659 4.55358L7.7496 9.15541L7.31563 6.90124C7.28823 6.14649 6.67403 5.54952 5.91222 5.54952C5.12776 5.54952 4.5 6.17162 4.5 6.95388C4.5 6.97742 4.50166 7.00092 4.50497 7.02422L5.58223 14.6051ZM15.8513 13.3154C15.8512 13.3154 15.8506 13.3118C15.8511 13.3141 13.3154Z" stroke="white" stroke-linecap="round" stroke-linejoin="round"/>
</svg>

<svg viewBox="0 0 24 24" version="1.1" xmlns="http://www.w3.org/2000/svg" xml:space="preserve" style="fill-rule:evenodd;clip-rule:evenodd;stroke-linecap:round;stroke-linejoin:round">
  <path d="M5.582 14.605c.002.011.004.021.006.032.378 1.815.999 3.326 1.988 4.387 1.007 1.079 2.354 1.649 4.077 1.649 1.268 0 2.35-.258 3.266-.802.912-.542 1.624-1.345 2.191-2.378.799-1.283 1.348-3.015 1.783-4.446.035-.109.072-.224.11-.343.089-.277.183-.57.263-.84.11-.371.215-.766.231-1.042.023-.354-.081-.692-.311-.949-.23-.257-.552-.398-.9-.422-.392-.028-.742.076-1.041.326-.278.232-.485.565-.664.941l-.003.004-.681 1.466.314-7.196V4.97c0-.787-.625-1.412-1.412-1.412-.777 0-1.396.619-1.404 1.396l-.122 2.022-.084-3.071c-.004-.784-.628-1.405-1.413-1.405-.782 0-1.404.628-1.404 1.412h0v.014l.105 3.766-.407-3.226c-.018-.764-.636-1.37-1.404-1.37-.784 0-1.412.622-1.412 1.404 0 .018.001.036.003.054l.493 4.601-.434-2.254c-.028-.755-.642-1.351-1.404-1.351-.784 0-1.412.622-1.412 1.404 0 .023.002.047.005.07l1.077 7.581Z" style="fill:none;fill-rule:nonzero;stroke:#fff;stroke-width:1px"/>
</svg>
